!!!OTL: Husarenliebe. / Wechsellied.
!!!OTL-incipit: WOHLAN DIE ZEIT IST KOMMEN
!!!COM: Volksweise
!!!ARE: Europa, Mitteleuropa, Deutschland
!!!SCT: F0582
!!!TXL: @@DE
!!!YEM: Copyright 1995, estate of Helmut Schaffrath.
**kern	**text
*ICvox	*
*clefG2	*
*M2/4	*
*k[b-]	*
*F:	*
!LO:TX:a:t=Schäkernd.	!
!LO:TX:a:t=P:only the highest voice encoded:problem	!
{16f/L	Huſaren: 1._Wohlan,
16aJ	.
=1	=1
8cc	.
8cc	die
8cc	Ʒeit
8ff	iſt
=2	=2
4cc/	kom-
8a}	-men,
{8a	mein
=3	=3
8b-/	Pferdchen
8b-/	.
8g	muß
8g	ge-
=4	=4
8a	-ſat-
8a	-telt
8a}	ſein;
{16fL	ich
16aJ	.
=5	=5
8cc	hab'
8cc	mir's
8cc	vor-
8ff	-ge-
=6	=6
4cc/	-nommen,
8a}	.
{8a	ge-
=7	=7
8b-/	-rit-
8b-/	-ten
8g	muß
8g	es
=8	=8
8a	ſein.
8r}	.
{4cc	Geh
=9	=9
8b-/	du
8b-/	nur
8g	hin,
8g	ich
=10	=10
8a	hab
8a	mein
8cc/}	Theil,
{8cc/	ich
=11	=11
8b-/	führ'
8b-/	dich
8g	nur
8g	am
=12	=12
8a	Narren-
8a	.
8cc}/	-ſeil;
{16a	oh-
16b-/	-ne
=13	=13
8cc	dich
8cc	kann
8cc	ich
8ff	ſchon
=14	=14
4cc/	le-
8a}	-ben,
{16a	oh-
16a	-ne
=15	=15
8b-/	dich
8b-/	kann
8g	ich
8g	ſchon
=16	=16
4a	ſein.
8r}	.
==	==
!!!AGN: Soldaten - Lied, Liebe, Scherz
!!!ONB: ESAC (Essen Associative Code) Database: FINK
!!!AMT: simple duple
!!!AIN: vox
!!!EED: Helmut Schaffrath
!!!EEV: 1.0
!!!GTL: Soldaten- und Jaegerlieder
!!Text: Volkslied
!!@@COMMENT:"Anmerkung. Dies Lied iſt eine Ʒuſammenſetʒung des Volkes aus mehreren, die aber in vielen anderen Strophen ʒur niedrigen Klaſſe 
!!gehören und der Aufʒeichnung weiter nicht werth ſind. Es iſt beliebt, und, wie es hier ſteht, aus dem Munde des Volkes."
!!@@END:
!!!source: Musikalischer Hausschatz der Deutschen. Eine Sammlung von über 1000 Liedern und Gesängen mit Singstimmen und Klavierbegleitung. Leipzig, Litterarisches Verlags-Haus.
!!!page: 379
!!!URL-scan: https://www.digitale-sammlungen.de/en/view/bsb11144622?page=346
!!!ENC: Anna Maria Matuszewska
!!!EEV: 2024/08/02
*-	*-
